icons/hash-24.svg

<svg xmlns="http://www.w3.org/2000/svg" width="24" height="24" viewBox="0 0 24 24"><path fill-rule="evenodd" d="M9.618 1.76a.75.75 0 01.623.859L9.46 7.5h6.48l.82-5.118a.75.75 0 011.48.237L17.46 7.5h3.79a.75.75 0 010 1.5h-4.03l-.96 6h3.99a.75.75 0 110 1.5h-4.23l-.78 4.869a.75.75 0 01-1.48-.237l.74-4.632H8.02l-.78 4.869a.75.75 0 01-1.48-.237L6.5 16.5H2.745a.75.75 0 010-1.5H6.74l.96-6H3.75a.75.75 0 010-1.5h4.19l.82-5.118a.75.75 0 01.858-.622zM14.741 15l.96-6H9.22l-.96 6h6.48z"/></svg>

<svg xmlns="http://www.w3.org/2000/svg" width="24" height="24" viewBox="0 0 24 24">
  <defs/>
  <path d="M9.618,1.76 C10.027,1.825 10.306,2.21 10.241,2.619 L9.46,7.5 L15.94,7.5 L16.76,2.382 C16.839,1.987 17.216,1.725 17.614,1.789 C18.012,1.853 18.288,2.219 18.24,2.619 L17.46,7.5 L21.25,7.5 C21.664,7.5 22,7.836 22,8.25 C22,8.664 21.664,9 21.25,9 L17.22,9 L16.26,15 L20.25,15 C20.664,15 21,15.336 21,15.75 C21,16.164 20.664,16.5 20.25,16.5 L16.02,16.5 L15.24,21.369 C15.161,21.764 14.784,22.026 14.386,21.962 C13.988,21.898 13.712,21.532 13.76,21.132 L14.5,16.5 L8.02,16.5 L7.24,21.369 C7.161,21.764 6.784,22.026 6.386,21.962 C5.988,21.898 5.712,21.532 5.76,21.132 L6.5,16.5 L2.745,16.5 C2.331,16.5 1.995,16.164 1.995,15.75 C1.995,15.336 2.331,15 2.745,15 L6.74,15 L7.7,9 L3.75,9 C3.336,9 3,8.664 3,8.25 C3,7.836 3.336,7.5 3.75,7.5 L7.94,7.5 L8.76,2.382 C8.826,1.974 9.209,1.695 9.618,1.76 Z M14.741,15 L15.701,9 L9.22,9 L8.26,15 Z"/>
</svg>
